X:1
T:Title
%%score { 1 | 2 }
L:1/8
Q:1/4=100
M:4/4
K:Ab
V:1 treble nm="Grand Piano"
V:2 bass 
V:1
 [CE]2 [CE]2 [CA]3 [CA] | [EB]2 [Ed]2 [Ec][DB] [CA]2 | e2 e2 c4 | [=DA]2 [Dc]2 [EB]4 | %4
w: Adam~Geibel * * *||||
 [CE]2 [CE]2 [CA]3 [CA] | [EB]2 [Ed]2 [Ec][DB] [CA]2 | [Fd]2 [Fd]2 c4 | B2 B2 [CA]4 | %8
w: ||||
 [Fd]2 [Fd]2 [Fd]3 [DF] | [FA]2 [Fd]2 [Ec][DB] [CA]2 | [=Ec]2 [Ec]2 [Fc]4 | [A=d]2 [Ad]2 [Ge]4 | %12
w: ||||
 [CE]2 [CE]2 [CA]3 [CA] | [EB]2 [Ed]2 [Ec][DB] [CA]2 | [Fd]2 [Fd]2 c4 | B2 B2 [CA]4 |] %16
w: ||||
V:2
 [A,,A,]2 [A,,A,]2 [A,,A,]3 [A,,A,] | [E,G,]2 [E,B,]2 [A,,A,]2 [A,,A,]2 | %2
 [A,CA]2 [A,CA]2[K:bass] [A,E]4 | [B,,F,]2 [B,,A,]2 [E,G,]4 | [A,,A,]2 [A,,A,]2 [A,,A,]3 [A,,A,] | %5
 [E,G,]2 [E,B,]2 [A,,A,]2 [A,,A,]2 | [D,A,]2 [D,A,]2 [E,A,E]4 | [E,G,D]2 [E,G,D]2 [A,,A,]4 | %8
 [D,A,]2 [D,A,]2 [D,A,]3 [D,A,] | [D,A,]2 [D,A,]2 [A,,A,]2 [A,,A,]2 | [C,G,]2 [C,G,]2 [F,A,]4 | %11
 [B,,B,]2 [B,,B,]2 [E,B,]4 | [A,,A,]2 [A,,A,]2 [A,,A,]3 [A,,A,] | %13
 [E,G,]2 [E,B,]2 [A,,A,]2 [A,,A,]2 | [D,A,]2 [D,A,]2 [E,A,E]4 | [E,G,D]2 [E,G,D]2 [A,,A,]4 |] %16

